remix/Device/remote-control-2-fill.svg

<svg viewBox="0 0 24 24" fill="currentColor" xmlns="http://www.w3.org/2000/svg"><path d="M18 2C18.5523 2 19 2.44772 19 3V21C19 21.5523 18.5523 22 18 22H6C5.44772 22 5 21.5523 5 21V3C5 2.44772 5.44772 2 6 2H18ZM15 15H13V17H15V15ZM11 15H9V17H11V15ZM13 6H11V8H9V10H10.999L11 12H13L12.999 10H15V8H13V6Z"/></svg>

<svg viewBox="0 0 24 24" xmlns="http://www.w3.org/2000/svg"><path fill="none" d="M0 0h24v24H0Z"/><path d="M18 2v0c.55 0 1 .44 1 1v18 0c0 .55-.45 1-1 1H6v0c-.56 0-1-.45-1-1V3v0c0-.56.44-1 1-1h12Zm-3 13h-2v2h2v-2Zm-4 0H9v2h2v-2Zm2-9h-2v2H9v2h1.99l0 2h2l-.01-2h2V8h-2V6Z"/></svg>
